svgs/solid/rotate-exclamation.svg

<svg xmlns="http://www.w3.org/2000/svg" viewBox="0 0 512 512"><!--! Font Awesome Pro 6.2.0 by @fontawesome - https://fontawesome.com License - https://fontawesome.com/license (Commercial License) Copyright 2022 Fonticons, Inc. --><path d="M432 117.4V80c0-17.7 14.3-32 32-32s32 14.3 32 32V192c0 17.7-14.3 32-32 32H437.8c-.5 0-1 0-1.5 0H352c-17.7 0-32-14.3-32-32s14.3-32 32-32h32c-29.2-38.9-75.7-64-128-64c-69.6 0-128.9 44.5-150.9 106.7c-5.9 16.7-24.2 25.4-40.8 19.5s-25.4-24.2-19.5-40.8C75.5 94.4 158.4 32 256 32c71.4 0 135 33.4 176 85.4zM280 152V264c0 13.3-10.7 24-24 24s-24-10.7-24-24V152c0-13.3 10.7-24 24-24s24 10.7 24 24zM256 384c-17.7 0-32-14.3-32-32s14.3-32 32-32s32 14.3 32 32s-14.3 32-32 32zM48 464c-17.7 0-32-14.3-32-32V320c0-17.7 14.3-32 32-32H160c17.7 0 32 14.3 32 32s-14.3 32-32 32H128c29.2 38.9 75.7 64 128 64c69.6 0 128.9-44.5 150.9-106.7c5.9-16.7 24.2-25.4 40.8-19.5s25.4 24.2 19.5 40.8C436.5 417.6 353.6 480 256 480c-71.4 0-135-33.4-176-85.4V432c0 17.7-14.3 32-32 32z"/></svg>

<svg xmlns="http://www.w3.org/2000/svg" viewBox="0 0 512 512"><!--! Font Awesome Pro 6.1.2 by @fontawesome - https://fontawesome.com License - https://fontawesome.com/license (Commercial License) Copyright 2022 Fonticons, Inc. --><path d="M432 117.4V80C432 62.33 446.3 48 464 48C481.7 48 496 62.33 496 80V192C496 209.7 481.7 224 464 224H437.8C437.3 224 436.8 224 436.3 224H352C334.3 224 320 209.7 320 192C320 174.3 334.3 160 352 160H384C354.8 121.1 308.3 96 255.1 96C186.4 96 127.1 140.5 105.1 202.7C99.21 219.3 80.92 228.1 64.26 222.2C47.6 216.3 38.86 197.1 44.75 181.3C75.49 94.38 158.4 32 255.1 32C327.4 32 390.1 65.42 432 117.4V117.4zM280 264C280 277.3 269.3 288 256 288C242.7 288 232 277.3 232 264V152C232 138.7 242.7 128 256 128C269.3 128 280 138.7 280 152V264zM224 352C224 334.3 238.3 320 256 320C273.7 320 288 334.3 288 352C288 369.7 273.7 384 256 384C238.3 384 224 369.7 224 352zM48 464C30.33 464 16 449.7 16 432V320C16 302.3 30.33 288 48 288H160C177.7 288 192 302.3 192 320C192 337.7 177.7 352 160 352H127.1C157.2 390.9 203.7 416 256 416C325.6 416 384.9 371.5 406.9 309.3C412.8 292.7 431.1 283.9 447.7 289.8C464.4 295.7 473.1 314 467.2 330.7C436.5 417.6 353.6 480 256 480C184.6 480 121 446.6 80 394.6V432C80 449.7 65.67 464 48 464V464z"/></svg>
